src/lib/packages/icons/src/assets/line/cpu.svg

<svg xmlns="http://www.w3.org/2000/svg" width="24" height="24" fill="none"><path fill="currentColor" d="M21 14.25h-1.25v-4.5H21a.75.75 0 0 0 0-1.5h-1.25V8c0-2.418-1.332-3.75-3.75-3.75h-.25V3a.75.75 0 0 0-1.5 0v1.25h-4.5V3a.75.75 0 0 0-1.5 0v1.25H8C5.582 4.25 4.25 5.582 4.25 8v.25H3a.75.75 0 0 0 0 1.5h1.25v4.5H3a.75.75 0 0 0 0 1.5h1.25V16c0 2.418 1.332 3.75 3.75 3.75h.25V21a.75.75 0 0 0 1.5 0v-1.25h4.5V21a.75.75 0 0 0 1.5 0v-1.25H16c2.418 0 3.75-1.332 3.75-3.75v-.25H21a.75.75 0 0 0 0-1.5ZM18.25 16c0 1.577-.673 2.25-2.25 2.25H8c-1.577 0-2.25-.673-2.25-2.25V8c0-1.577.673-2.25 2.25-2.25h8c1.577 0 2.25.673 2.25 2.25v8ZM14 7.75h-4c-1.409 0-2.25.841-2.25 2.25v4c0 1.409.841 2.25 2.25 2.25h4c1.409 0 2.25-.841 2.25-2.25v-4c0-1.409-.841-2.25-2.25-2.25Zm.75 6.25c0 .589-.161.75-.75.75h-4c-.589 0-.75-.161-.75-.75v-4c0-.589.161-.75.75-.75h4c.589 0 .75.161.75.75v4Z"/></svg>

<svg width="24" height="24" viewBox="0 0 24 24" fill="none" xmlns="http://www.w3.org/2000/svg">
<path d="M21 14.25H19.75V9.75H21C21.414 9.75 21.75 9.414 21.75 9C21.75 8.586 21.414 8.25 21 8.25H19.75V8C19.75 5.582 18.418 4.25 16 4.25H15.75V3C15.75 2.586 15.414 2.25 15 2.25C14.586 2.25 14.25 2.586 14.25 3V4.25H9.75V3C9.75 2.586 9.414 2.25 9 2.25C8.586 2.25 8.25 2.586 8.25 3V4.25H8C5.582 4.25 4.25 5.582 4.25 8V8.25H3C2.586 8.25 2.25 8.586 2.25 9C2.25 9.414 2.586 9.75 3 9.75H4.25V14.25H3C2.586 14.25 2.25 14.586 2.25 15C2.25 15.414 2.586 15.75 3 15.75H4.25V16C4.25 18.418 5.582 19.75 8 19.75H8.25V21C8.25 21.414 8.586 21.75 9 21.75C9.414 21.75 9.75 21.414 9.75 21V19.75H14.25V21C14.25 21.414 14.586 21.75 15 21.75C15.414 21.75 15.75 21.414 15.75 21V19.75H16C18.418 19.75 19.75 18.418 19.75 16V15.75H21C21.414 15.75 21.75 15.414 21.75 15C21.75 14.586 21.414 14.25 21 14.25ZM18.25 16C18.25 17.577 17.577 18.25 16 18.25H8C6.423 18.25 5.75 17.577 5.75 16V8C5.75 6.423 6.423 5.75 8 5.75H16C17.577 5.75 18.25 6.423 18.25 8V16ZM14 7.75H10C8.591 7.75 7.75 8.591 7.75 10V14C7.75 15.409 8.591 16.25 10 16.25H14C15.409 16.25 16.25 15.409 16.25 14V10C16.25 8.591 15.409 7.75 14 7.75ZM14.75 14C14.75 14.589 14.589 14.75 14 14.75H10C9.411 14.75 9.25 14.589 9.25 14V10C9.25 9.411 9.411 9.25 10 9.25H14C14.589 9.25 14.75 9.411 14.75 10V14Z" fill="currentColor"/>
</svg>
